!!!OTL: Graf und Nonne (Die Nonne) Einst stieg ich auf hohen Felsen
!!!ARE: Europa, Mitteleuropa, Oesterreich / Italia, Suedtirol, Brixen, Vals
!!!YOR: 8, S. 94
!!    1941 aufgezeichnet
!!!SCT: Q0155i
!!!YEM: Copyright 1995, estate of Helmut Schaffrath.
**kern
*ICvox
*Ivox
*M6/8
*k[f#]
*G:
{8d
=1
8b
8b
8b
8b
8a
8b
=2
8cc
8a
4.r}
{8f#
=3
8cc
8cc
8cc
8cc
8b
8cc
=4
4dd
4.r}
{8gg
=5
4ff#
8ee
4cc
8ee
=6
4ee
8dd
4b}
{8dd
=7
4dd
8cc
4dd
8cc
=8
4b
4.r}
{8gg
=9
4ff#
8ee
4cc
8ee
=10
4ee
8dd
4b}
{8dd
=11
4dd
8cc
4dd
8cc
=12
4b
4.r}
==
!!!AGN: Ballade, Standesunterschied, vergebliche Werbung, Liebe, Klage, Tod
!!!ONB: ESAC (Essen Associative Code) Database: BALLADE
!!!AMT: compound duple
!!!AIN: vox
!!!EED: Helmut Schaffrath
!!!EEV: 1.0
*-
